packages/core/src/svgs/tokens/mono/GRC.svg

<svg width="24" height="24" viewBox="0 0 24 24" fill="none" xmlns="http://www.w3.org/2000/svg">
<path fill-rule="evenodd" clip-rule="evenodd" d="M12 2.70303L4.1212 7.34605V16.6545L12 21.297L19.8788 16.6545V7.34546L12 2.70303ZM20.4849 7L12 2L3.51514 7V17L12 22L20.4849 17V7Z" fill="white"/>
<path d="M18.2127 11.0156C17.8176 9.03918 16.4248 7.61797 14.8533 6.51191L12.6424 7.68161C14.1976 8.54828 15.6061 9.57683 16.0425 11.0907H18.2273C18.2225 11.0656 18.2177 11.0406 18.2127 11.0156ZM12.0103 4.81009C12.7254 5.201 13.5133 5.63131 14.283 6.12768L12 7.33494C11.7133 7.18464 11.426 7.03797 11.1425 6.89434C10.6626 6.6542 10.1879 6.40447 9.71813 6.14524C10.4627 5.66937 11.2256 5.22316 12.0055 4.80767L12.0103 4.81009ZM11.3745 4.4604C10.9261 4.21069 10.5242 3.97555 10.1957 3.74585C9.4855 4.17009 8.06543 5.00646 8.06543 4.96404C8.34967 5.25918 8.71513 5.53374 9.13393 5.79858C10.0116 5.2404 10.5716 4.9004 11.3745 4.4604ZM18.3151 12.3029H12L10.7879 14.7271H14.8437C13.8654 15.6301 12.4722 16.3955 11.0921 17.1538C10.0055 17.7513 8.92664 18.3441 8.06543 18.9962C8.77574 19.4101 10.1957 20.2694 10.1957 20.2907C10.4327 20.1586 10.6782 20.0241 10.9291 19.8852C14.0806 18.1501 18.1497 15.9095 18.3151 12.3029Z" fill="white"/>
<path d="M5.79517 11.0156C6.42729 7.85374 9.61337 6.11252 11.9976 4.81009C12.7006 4.42585 13.3345 4.07918 13.8121 3.74585C14.5224 4.17009 15.9425 5.00646 15.9425 4.96404C15.2576 5.67616 14.0971 6.26707 12.8649 6.89434C10.4388 8.12889 7.73396 9.5064 7.82971 12.2313C7.89032 13.9525 9.49274 15.1822 11.3921 16.298C10.6013 16.741 10.0455 17.055 9.20129 17.5319C6.96062 15.9023 5.23093 13.8362 5.79517 11.0156ZM9.75153 17.9174C10.5016 17.4932 11.2525 17.0705 12.0043 16.6495C12.3055 16.8192 12.6104 16.9865 12.9151 17.1538C13.3703 17.4041 13.8243 17.6531 14.2607 17.9064C14.1461 17.9792 14.0377 18.0495 13.9327 18.1168C13.2587 18.5489 12.7552 18.8726 12.0085 19.2913C11.257 18.8677 10.4855 18.4131 9.75153 17.9174ZM12.6273 19.6362C12.7794 19.721 12.9304 19.8035 13.0789 19.8852C13.3303 20.0241 13.5758 20.1586 13.8121 20.2914C13.8121 20.2694 15.2322 19.4101 15.9425 18.9962C15.5837 18.7282 15.2124 18.4776 14.8297 18.2452L14.8376 18.2574C14.6316 18.3884 14.4431 18.5095 14.2655 18.6234C13.728 18.9747 13.1817 19.3124 12.6273 19.6362Z" fill="white"/>
</svg>

<svg xmlns="http://www.w3.org/2000/svg" width="24" height="24" fill="none" viewBox="0 0 24 24">
    <path fill="#fff" fill-rule="evenodd" d="M12 2.703 4.121 7.346v9.308L12 21.298l7.879-4.643v-9.31zM20.485 7 12 2 3.515 7v10L12 22l8.485-5z" clip-rule="evenodd"/>
    <path fill="#fff" d="M18.213 11.016c-.395-1.977-1.788-3.398-3.36-4.504l-2.21 1.17c1.555.866 2.963 1.895 3.4 3.409h2.184zM12.01 4.81c.715.391 1.503.821 2.273 1.318L12 7.335q-.432-.225-.857-.44-.72-.36-1.425-.75a34 34 0 0 1 2.287-1.337zm-.636-.35a14 14 0 0 1-1.178-.714c-.71.424-2.13 1.26-2.13 1.218.284.295.65.57 1.068.835a36 36 0 0 1 2.24-1.339m6.941 7.843H12l-1.212 2.424h4.056c-.979.903-2.372 1.668-3.752 2.427-1.087.597-2.165 1.19-3.027 1.842.71.414 2.13 1.273 2.13 1.295l.734-.406c3.152-1.735 7.22-3.976 7.386-7.582"/>
    <path fill="#fff" d="M5.795 11.016c.632-3.162 3.818-4.903 6.203-6.206.703-.384 1.337-.73 1.814-1.064.71.424 2.13 1.26 2.13 1.218-.684.712-1.845 1.303-3.077 1.93-2.426 1.235-5.131 2.612-5.035 5.337.06 1.722 1.663 2.951 3.562 4.067-.79.443-1.346.757-2.19 1.234-2.241-1.63-3.971-3.696-3.407-6.516m3.957 6.901q1.124-.636 2.252-1.268.453.254.911.505c.455.25.91.5 1.346.752l-.328.21c-.674.433-1.178.757-1.924 1.175a33 33 0 0 1-2.257-1.374m2.875 1.72.452.248.733.406c0-.022 1.42-.88 2.13-1.295a14 14 0 0 0-1.112-.75l.008.011-.572.366q-.807.528-1.639 1.013"/>
</svg>
